Obsidian-SemiLight/actions/22s/labplot-xy-interpolation-curve.svg

<svg viewBox="0 0 22 22" xmlns="http://www.w3.org/2000/svg"><path d="m10.216797 5.8339844-3.185547 8.4902346.9375.351562 2.816406-7.5078122 6.517578 2.7929687.394532-.9199219z" fill="#3daee9"/><path d="m4 3v14h-1v1h1v1h1v-1h14v-1h-14v-14zm6 2v1h1v-1zm1 1v1h1v-1zm0 1h-1v1h1zm-1 0v-1h-1v1zm7 1v1h1v-1zm1 1v1h1v-1zm0 1h-1v1h1zm-1 0v-1h-1v1zm-10 3v1h1v-1zm1 1v1h1v-1zm0 1h-1v1h1zm-1 0v-1h-1v1z" fill="#4d4d4d"/></svg>

<svg xmlns="http://www.w3.org/2000/svg" viewBox="0 0 22 22">
  <defs id="defs3051">
    <style type="text/css" id="current-color-scheme">
      .ColorScheme-Text {
        color:#4d4d4d;
      }
      .ColorScheme-Highlight {
        color:#3daee9;
      }
      </style>
  </defs>
 <path 
     style="fill:currentColor;fill-opacity:1;stroke:none" 
     d="M 10.216797,5.8339844 7.03125,14.324219 7.96875,14.675781 10.785156,7.1679688 17.302734,9.9609375 17.697266,9.0410156 10.216797,5.8339844 Z"
     class="ColorScheme-Highlight"
     />
 <path 
     style="fill:currentColor;fill-opacity:1;stroke:none" 
     d="M 4 3 L 4 17 L 3 17 L 3 18 L 4 18 L 4 19 L 5 19 L 5 18 L 19 18 L 19 17 L 5 17 L 5 3 L 4 3 z M 10 5 L 10 6 L 11 6 L 11 5 L 10 5 z M 11 6 L 11 7 L 12 7 L 12 6 L 11 6 z M 11 7 L 10 7 L 10 8 L 11 8 L 11 7 z M 10 7 L 10 6 L 9 6 L 9 7 L 10 7 z M 17 8 L 17 9 L 18 9 L 18 8 L 17 8 z M 18 9 L 18 10 L 19 10 L 19 9 L 18 9 z M 18 10 L 17 10 L 17 11 L 18 11 L 18 10 z M 17 10 L 17 9 L 16 9 L 16 10 L 17 10 z M 7 13 L 7 14 L 8 14 L 8 13 L 7 13 z M 8 14 L 8 15 L 9 15 L 9 14 L 8 14 z M 8 15 L 7 15 L 7 16 L 8 16 L 8 15 z M 7 15 L 7 14 L 6 14 L 6 15 L 7 15 z "
     class="ColorScheme-Text"
     />
</svg>
